X:5861
T:Scottisch - Plume (J. Salan)
O:england
S:Trad 4, 37 / R. Rober6t Mosaique
M:2/4
L:1/16
K:C
gagf efed|c2eg a2f2|d2f2 B2d2|cBce g4|\
gagf efed|c2eg a2f2|d2f2 B2d2|cBce c4:|
K:G
|:d2d2 b2b2|agfe d2Bd|cBAc BAGB|A2dc B2G2|\
d2d2 b2b2|agfe d2Bd|cBAc BAGB|A2A2 G4:|
